X: 25
T:John Peel Variations
% Nottingham Music Database
S:NPTB
M:4/4
L:1/8
R:Hornpipe
K:A
cd|"A"e2e2 c2cd|"A"e2e2 c2Bc|"E7"d2d2 B2Bc|"E7"d2d2 B2cB|
"A"A2A2 a3a|"D"g2f2 "A"e2dc|"D"f2dB "A"A2GA|"E7"B4 "A"A2:|:

cd|:e2ec2EAc|e2ec2EGB|d2dB2EGB|d2dB2EcB|
A2A2 a3g|fAdf eEAc|f2dB A2GA|B4 A2:|:

cd|e2ec2EAc|eEec2EGB|dEdB2EGB|
dEdB2EcB|A2A2 a3g|fAdf eEAc|f2dB A2GA|B4 A2:|:

cd|eEeE cEAc|eEeE cEGB|dEdE BEGB|
dEdE BEcB|A2A2 a3g|fAdf eEAc|f2dB A2GA|B4 A2:|:

cd|eEeE cEAc|efed cEGB|dEdE BEGB|dedc BEcB|
A/2B/2A/2G/2A/4B/4c/4d/4e/4f/4g/4a3g|fAdf eEAc|f2dB A2GA|B4 A2:|


